X: 1816
T: Pumpkin Scones
C:Bill Montgomery, Kiama, NSW
B: australian traditional tunes wiki
M:4/4
L:1/8
R: March
Q: 1/4=100
K:G
V:1 
BA|"G"G2Bd gdBd|"C"e2ce"G"d2Bc|d2^cd "C"ed=cB|"D7"c2A2A2BA|
"G"G2Bd gdBd|"C"e2ce"G"d2FE|"D7"DEFG Aedc|"G"B2G2G2:|
|:ef|"G"gfga gdBd|"C"edce "G"d2Bc|d2^cd "C"ed=cB|"D7"c2A2A2|1
ef|"G"gfga gdBd|"C"edce "G"d2FE|"D7"DEFG Aedc|"G"B2G2G2:|2
BA|"G"G2Bd gdBd|"C"e2ce"G"d2FE|"D7"DEFG Aedc|"G"B2G2G2||
% abcbook-tune_id 6342d53adb8bea67cd032fc7


% abcbook-boost 0
% abcbook-tablature 
% abcbook-transpose 
% abcbook-lastupdated 1665324385621
% abcbook-soundfonts 
% abcbook-repeats 1
% NFF Book 2015

